src/lib/packages/icons/src/assets/line/cloud-check.svg

<svg width="24" height="24" viewBox="0 0 24 24" fill="none" xmlns="http://www.w3.org/2000/svg">
<path d="M16 19.75H9.5C5.502 19.75 2.25 16.498 2.25 12.5C2.25 8.502 5.502 5.25 9.5 5.25C11.264 5.25 12.9641 5.89198 14.2881 7.05798C14.7021 7.42298 15.0711 7.83303 15.3921 8.28003C15.5931 8.25903 15.794 8.24902 16 8.24902C19.171 8.24902 21.75 10.828 21.75 13.999C21.75 17.17 19.171 19.75 16 19.75ZM9.5 6.75C6.329 6.75 3.75 9.329 3.75 12.5C3.75 15.671 6.329 18.25 9.5 18.25H16C18.344 18.25 20.25 16.344 20.25 14C20.25 11.656 18.344 9.75 16 9.75C15.717 9.75 15.4449 9.77503 15.1689 9.82703C14.8669 9.88503 14.5551 9.74801 14.3931 9.48401C14.0931 8.99901 13.7239 8.56102 13.2959 8.18402C12.2469 7.25902 10.898 6.75 9.5 6.75ZM11.863 15.364L14.53 12.697C14.823 12.404 14.823 11.929 14.53 11.636C14.237 11.343 13.762 11.343 13.469 11.636L11.332 13.772L10.5291 12.969C10.2361 12.676 9.76102 12.676 9.46802 12.969C9.17502 13.262 9.17502 13.737 9.46802 14.03L10.801 15.363C10.942 15.504 11.1321 15.583 11.3311 15.583C11.5321 15.583 11.723 15.504 11.863 15.364Z" fill="currentColor"/>
</svg>

<svg xmlns="http://www.w3.org/2000/svg" width="24" height="24" fill="none"><path fill="currentColor" d="M16 19.75H9.5c-3.998 0-7.25-3.252-7.25-7.25S5.502 5.25 9.5 5.25a7.24 7.24 0 0 1 5.892 3.03 5.756 5.756 0 0 1 6.358 5.719A5.757 5.757 0 0 1 16 19.75Zm-6.5-13a5.756 5.756 0 0 0-5.75 5.75 5.756 5.756 0 0 0 5.75 5.75H16A4.254 4.254 0 0 0 20.25 14 4.254 4.254 0 0 0 16 9.75a4.44 4.44 0 0 0-.831.077.749.749 0 0 1-.776-.343c-.3-.485-.67-.923-1.097-1.3A5.737 5.737 0 0 0 9.5 6.75Zm2.363 8.614 2.667-2.667a.75.75 0 1 0-1.061-1.061l-2.137 2.136-.803-.803a.75.75 0 0 0-1.061 1.061l1.333 1.333a.749.749 0 0 0 1.062.001Z"/></svg>
